X:1
T:Les Soirees D'Auteuil
T:Les soirees d'auteuil
T:Serenade 1st movement, op.23
T:Napoleon Coste (1805-1883)
C:Napoleon Coste (1805-1883)
Z:Serenade
%%score ( 1 2 3 )
L:1/8
Q:1/8=57
M:3/8
K:A
V:1 treble-8 nm="Classical Guitar" snm="Guit."
V:2 treble-8 
V:3 treble-8 
V:1
"^Andante"!p! !2!A3 | A/B/=c/d/e/c/ |!mp!"_cresc." B3 | B/=c/d/e/=f/d/ | !2![=Gc]>[Ac][Ad]/[Ace]/ | %5
w: |||||
 !2!!3!!4![Ad=g]/=f<ed/ |!p!"_dim." [A=c]/B/ A2 |!pp! z!>(! [A=c][^GB]!>)! | z3 || %9
w: ||||
[Q:1/8=104]!mp!"^Andantino" !0!A,!>(!!1!!2![EA^c][EAc]!>)! | A,[EAc][EAc] | !0!e3 | %12
w: |||
"^1/2CII--------------" f>ga | e3 |"^1/2CIX--------" c'/(g/a/)f/!0!e | !4!=f2 !2!e | %16
w: ||||
 z/ !4!d'/(!3!c'/!1!b/)!4!a/"^-----"!3!g/ |"^1/2CV----------" b2 a | z3 | %19
w: |||
"^CII--------------" c2 c | !0!B>cB | !0!B"^1/2CII-----------"!<(!!1!A/d/!2!f/!4!a/!<)! | %22
w: |||
 !3!!4![dg]/d'/(c'/b/)a/g/ |"^1/2CIV---------" g2 !4!f | %24
w: ||
"^--------------------" !4!^e2!p!"_dim." !4!e |"^CII--------------"!pp! [Af]3- | [Af] z!p! !2!f | %27
w: |||
!mp! !2!f>df/!2!b/ | !2!a>!2!=g!0!e/!1!^e/ | f>df/b/ | a>!2!=g!0!e | !3!f>f!4!a/!3!g/ | %32
w: |||||
"^CII---------------------" !1!f>!1!c!1!f/!4!a/ |"^VI" !4!c'!3!!4![f^b]"^VII"!4!!1![g=b] | %34
w: ||
"^V" !4!!2![fa] [fa]2 | [fa][fa][fa] |"^CVII---" [dfb] [dfb]2 | %37
w: |||
"^IV---------------------------------------------------" !3!!4!!2![cfa]2 [cfa] | %38
w: |
 !2!!4!!1![cfg]>a[c^eg] |"^CIII--------------" !2!!4![^A=e=g] [Aeg]2 | !3!!2!!1![Bdf]>!1!b!4!d' | %41
w: |||
!p! !0![^Ace]>"^h.b."!1!f!0![Ace] | [FBd] [FBd]2 | %43
w: ||
"^CIII--------------"!pp! !3!!2!!1![=GBd]!4![=GBe][=GBd] | !1!!0!!2![E=Gc] [EGc]2 | %45
w: ||
"^CII-------------------------------------------------------------" !3!!4!!1![FBc] [FBc]2 | %46
w: |
!ppp! !2![F^Ac] [FAc]2 |[Q:1/8=80]"^poco rit."!p! [F=A^d]c[FAd] || %48
w: ||
"^a tempo"[Q:1/8=112]!mp! !0!e>!0!B!0!e/!3!f/ | %49
w: |
"^CII--------------------------------------------------------------------------" !4!g>!1!f!4!e/!3!^d/ | %50
w: |
 ^d>c!4!e/!3!d/ | !3!f>!0!e!4!^d/"^------"!2!c/ | !2!c>!0!B!0!e/!2!f/ | g>fe/^d/ | %54
w: ||||
 !1!^B>!4!c!4!e/!3!^d/ |"^CII------------------------------" !1!f/!4!e/!3!^d/!1!f/!4!e/!1!c/ | %56
w: ||
 !0!B>!0!G!0!B/!0!e/ | !1!=c>!1!c(!4!=d/!1!c/) | B>GB/e/ | %59
w: |||
"^CII------------------------------" !4!^d>!4!d(!1!c/!4!d/) |!p! e>GB/e/ | =c>c(=d/c/) | B>GB/e/ | %63
w: ||||
 ^d>!-(!!4!d"^rit."[Q:1/8=40]!-)!!4!g/!2!f/ |[Q:1/8=124]"^a tempo"!mp! !0!e>e(=c/=d/) | %65
w: ||
 B>e(=c/=d/) | B>e"^rall."[Q:1/8=94](=c/=d/) |[Q:1/8=134] !0!B/!0!e/!1!G/!0!B/(!3!E/!0!G/) | %68
w: |||
 !2!B,/!3!E/ z[Q:1/8=94] z |[Q:1/8=112] (!0!E,/!2!F,/!4!G,/)[Q:1/8=132](!0!A,/!2!B,/!4!C/) | %70
w: ||
[Q:1/8=137] (!0!D/!2!E/!4!F/)[Q:1/8=144](!1!G/!2!A/!3!^A/) | %71
w: |
 (!0!B/!2!c/!3!d/)[Q:1/8=124]!4!^d/(!0!e/!1!^e/) | %72
w: |
[Q:1/8=80] (!2!f/[Q:1/8=137]!0!e/)(!3!d/!2!c/!0!B/)(!2!A/ | %73
w: |
[Q:1/8=124]"^rall." !1!G/)(!4!F/!2!E/D/)(C/B,/) ||[Q:1/8=117]"^a tempo"!pp! A,/c/A/c/E/c/ | %75
w: ||
 A,/c/A/c/E/c/ |!mp! A,/c/A/c/E/c/ |"^1/2CII-------------------" f>!3!g!4!a | A,/c/A/c/E/A/ | %79
w: |||destavar melodia * * * *|
 z/ !4!c'/!3!g/!1!b/(!4!a/!1!f/) | !0!e2 z | E,2 z |"^1/2CV--------" z/ e/c/e/c/e/ | z3 | %84
w: |||||
"^1/2CII-------------------" z/ A/!3!F/A/F/A/ | B>cB | BA/d/f/a/ | %87
w: |||
 z3/2"^-----" !2!=c/"^-----"!2!^d/!4!f/ | !0!e>!3!^c!0!e/!1!^e/ | !3!f>!0!=e!4!d/!0!B/ | !2!A2 z | %91
w: ||||
 !1![Ac]/!3!!2![Bd]/[^B^d]/[ce]/ z | !2!!1![ca]/!3!!4![db]/[^d^b]/[ec']/ z | %93
w: ||
"^1/2VII------------------------------" x/ (!3!c'/b/)f/b/!4!a/ | %94
w: |
 !3!!4![eg]/[df]/!2!!1![ce]/[^B^d]/[=B=d] | [Ac]/[Bd]/[^B^d]/[ce]/ z | [ca]/[db]/[^d^b]/[ec']/ z | %97
w: |||
 !1!!2![c^a]/!3!!4![=d=b]<[Q:1/8=97]!3!!2![f=d'][Q:1/8=117][ec']/ | %98
w: |
 !3!!2![c=a]/(!1!g/4!2!a/4)(!1!g/4!2!a/4!4!b/4!2!a/4)!3!!4!!1![dfa]/!2!=f/ | %99
w: |
 !2!!1![cea]/(!1!G/4!2!A/4)(!1!G/4!2!A/4!4!B/4!2!A/4)!2!d |[Q:1/8=107]"^alargento"!p! e>ed | %101
w: ||
 c2[Q:1/8=94] c- | cc[Q:1/8=74][ce] | [A,Eca]2 z |] %104
w: |||
V:2
 !0!A,/B,/=C/D/E/C/ | A,3 | B,/=C/D/E/=F/D/ | B,3 | !0!A,/_B,/A,/=G,/=F,/E,/ | !0!D>E,^F,/^G,/ | %6
 A,/B,/=C/^C/(D/^D/) | E{^DE=FE=DE-} E E, | x3 || x3 | x3 | A,[EAc][EAc] | A,!0!!1!!2![DAd][DAd] | %13
 A,[EAc][EAc] | A,3 | E,"^--------------"!3!!1![GB][GB] | E,3 | A,[ce][ce] | %18
 !0!A,/!3!G,/!0!A,/B,/C/A,/ | F,!3![FA][FA] | !4!C!3!!1![^EG][EG] | !4!D/!3!F/A z | !1!B,/ z/ z z | %23
 C!2!!3![Ac][Ac] | C2 C | F,!3!C!4!A, | !1!F, z z | !0!D3 | !0!A,3 | D3 | A,3 | !0!D3 | !2!C3 | %33
 z !1!^D!2!^E | !1!F F2 | !1!D!1!C!1!D | B,B, x | !1!C>!1!^B,!1!C | !1!C2 C | CC x | !0!D3 | F2 F | %42
 B,B, x | !1!=G,G,G, | !0!E,E, x | !1!F,F, x | F,F, x | B,2 B, || !0!E,3 | !0!E,3 | E,3 | !0!E,3 | %52
 !0!E,3 | E,3 | E,3 | !0!E,3 | !0!E,3 | !0!E,3 | E,3 | E,3 | E,3 | E,3 | E,3 | E,3 | !0!E,3 | E,3 | %66
 E,3 | !0!E,GE | B,!4!G,/((!2!B,/!0!A,/))!2!F,/ | x3 | x3 | x3 | x3 | x3 || x3 | x3 | !0!e3 | %77
 A,/d/A/d/D/F/ | !0!e3 | !0!A,2 z | z/ C/G,/B,/A,/F,/ | x/ d'/c'/(b/a/)g/ | !4!b2 !1!a | %83
 A,/G,/A,/B,/C/A,/ | c2 c | C/G/^E/G/E/G/ | D/F/A x | ((!1!^D/!4!F/))!2!A/ z/ x | %88
 !0!E,/!1!E/!2!A x | !0!E,/!2!E/!1!G!0!G | !0!A,/!4!G,/(!0!A,/!4!C/)!0!A,/!1!F,/ | !0!E,2 E, | %92
 !0!E,2 E, | !0!E,3 | !0!E,2 E, | E,2 E, | E,2 E, | !0!E,2 E, | A, z !0!A, | !0!A, z !0!A, | %100
 A,2 z | A,2 A, | A,A,A, | x3 |] %104
V:3
 x3 | x3 | x3 | x3 | x3 | x3/2 ^G/A/B/ | x3 | x3 | x3 || x3 | x3 | x3 | x3 | x3 | x3 | x3 | x3 | %17
 x3 | x3 | x3 | x3 | x3 | x3 | x3 | B!3!cB | x3 | x3 | z/ !3!d/!1!A x | z/ !1!=G/!3!c x | %29
 z/ d/A x | z/ =G/c x | z/ !1!A/!2!^B x | z/ !3!F/!1!A x | x3 | x3 | x3 | x3 | x3 | x3 | x3 | x3 | %41
 x3 | x3 | x3 | x3 | x3 | x3 | x3 || !1!G/!3!E/!2!G z | z/ !1!E/!3!B z | z/ E/A z | %51
 z/ !1!^D/!2!A z | z/ !3!E/!1!G z | z/ E/B z | z/ !3!E/!2!A z | x2 z | x/ !1!G/!2!E z | %57
 x/ !3!A/!2!E z | z/ G/E z | z/ !1!A/!3!F z | z/ !1!G/!2!E z | z/ A/E z | z/ G/E z | z/ A/F z | %64
 z/ G/E A/ z/ | z/ G/E A/ z/ | z/ G/E A/ z/ | x3 | x3 | x3 | x3 | x3 | x3 | x3 || x3 | x3 | x3 | %77
 x3 | x3 | x3 | x3 | x3 | !0!A,3 | z3 | F,3 | x3 | x3 | x3 | x3 | x3 | x3 | x3 | x3 | !2!d3 | x3 | %95
 x3 | x3 | x3 | x3 | x2 !3!F/!2!=F/ | E/^D/E F/=F/ | E/^D/E E/-D/ | E EE | x3 |] %104

